src/svg/uf247-object-group.svg

<!-- Generated by IcoMoon.io -->
<svg version="1.1" xmlns="http://www.w3.org/2000/svg" width="37" height="32" viewBox="0 0 37 32">
<path d="M36.571 6.857h-2.286v18.286h2.286v6.857h-6.857v-2.286h-22.857v2.286h-6.857v-6.857h2.286v-18.286h-2.286v-6.857h6.857v2.286h22.857v-2.286h6.857v6.857zM32 2.286v2.286h2.286v-2.286h-2.286zM2.286 2.286v2.286h2.286v-2.286h-2.286zM4.571 29.714v-2.286h-2.286v2.286h2.286zM29.714 27.429v-2.286h2.286v-18.286h-2.286v-2.286h-22.857v2.286h-2.286v18.286h2.286v2.286h22.857zM34.286 29.714v-2.286h-2.286v2.286h2.286zM22.857 11.429h6.857v13.714h-16v-4.571h-6.857v-13.714h16v4.571zM9.143 18.286h11.429v-9.143h-11.429v9.143zM27.429 22.857v-9.143h-4.571v6.857h-6.857v2.286h11.429z"></path>
</svg>

<svg xmlns="http://www.w3.org/2000/svg" width="37" height="32"><path d="M36.571 6.857h-2.286v18.286h2.286V32h-6.857v-2.286H6.857V32H0v-6.857h2.286V6.857H0V0h6.857v2.286h22.857V0h6.857v6.857zM32 2.286v2.286h2.286V2.286H32zm-29.714 0v2.286h2.286V2.286H2.286zm2.285 27.428v-2.286H2.285v2.286h2.286zm25.143-2.285v-2.286H32V6.857h-2.286V4.571H6.857v2.286H4.571v18.286h2.286v2.286h22.857zm4.572 2.285v-2.286H32v2.286h2.286zM22.857 11.429h6.857v13.714h-16v-4.571H6.857V6.858h16v4.571zM9.143 18.286h11.429V9.143H9.143v9.143zm18.286 4.571v-9.143h-4.571v6.857h-6.857v2.286H27.43z"/></svg>
